assets/img/spinner/brio.svg

<svg width="64" height="56" viewBox="0 0 64 56" fill="none" xmlns="http://www.w3.org/2000/svg">
<g clip-path="url(#clip0)">
<path d="M7.08839 16.0826C6.10603 15.3079 5.12367 15.6784 4.90475 16.9134L4.07395 21.5838C3.85503 22.8131 3.49576 24.8284 3.28245 26.0633L2.47411 30.6215C2.25518 31.8508 2.95126 32.328 4.01782 31.6768L14.9473 25.008C16.0138 24.3568 16.0868 23.1892 15.1044 22.4146L7.08839 16.0826Z" fill="black"/>
<path d="M10.3164 54.0466C9.08709 54.0185 8.20016 53.6705 7.66688 53.0081C7.1785 52.4018 7.02133 51.6047 7.20096 50.6392C7.20096 50.6392 7.8858 46.9231 8.79519 41.9327L9.52494 37.8573L13.2242 17.2502L15.1384 6.36006C15.4191 4.45709 16.7888 3.35123 18.8826 3.35123H49.9139C54.5058 3.35123 57.9075 4.47954 60.0294 6.71371C60.7816 7.49959 61.371 8.44827 61.7808 9.53167C62.4994 11.4627 62.606 13.7923 62.1008 16.4531L61.5619 19.8773C61.2644 21.4603 60.7255 22.7683 59.9508 23.8011C59.2042 24.8003 58.4127 25.5918 57.5932 26.1588C57.2058 26.4282 56.8017 26.6696 56.3863 26.8886C56.9757 27.1412 57.5314 27.4387 58.0479 27.7811L58.1489 27.8428C58.2724 27.9214 58.4015 28.0056 58.5138 28.0955C59.4793 28.7971 60.3494 29.8244 61.0735 31.1211C61.2532 31.4411 61.3767 31.7611 61.4665 32.0024C61.9043 33.243 61.9829 34.7474 61.7022 36.4876L60.7704 41.3601C60.0463 45.4467 58.2556 48.6239 55.4601 50.7851C52.6814 52.9519 48.9765 54.0466 44.4464 54.0466H10.3164ZM41.8193 40.3834C43.711 40.3834 44.1208 39.502 44.278 38.5534L44.7439 35.7803C44.8337 35.2526 44.7944 34.8597 44.6316 34.6688C44.4464 34.4499 43.958 34.3208 43.2956 34.3208H27.1737L26.0959 40.3777H41.8193V40.3834ZM42.0607 21.3537C42.8017 21.3537 43.3855 21.1909 43.8345 20.8541C44.2499 20.5341 44.4969 20.1075 44.6092 19.5124L44.7551 18.5132C44.8113 18.1877 44.8618 17.6432 44.6429 17.3905C44.4464 17.1604 43.93 17.0257 43.2283 17.0257H30.205L29.436 21.3593H42.0607V21.3537Z" fill="black"/>
<path d="M49.9138 4.47954C54.2081 4.47954 57.3068 5.48435 59.2154 7.48836C59.8834 8.19005 60.383 9.004 60.731 9.93023C61.3709 11.648 61.472 13.753 61.0005 16.2454L60.456 19.7033C60.1977 21.0898 59.7262 22.2294 59.0582 23.1275C58.3846 24.0257 57.6829 24.7386 56.9588 25.2382C56.083 25.8444 55.1512 26.3047 54.1632 26.6247L54.0117 27.3208C55.3365 27.6071 56.4648 28.0842 57.4247 28.7242C57.5538 28.8084 57.6885 28.8869 57.812 28.9824C58.6877 29.6223 59.4511 30.5261 60.0967 31.6768C60.2258 31.9014 60.3212 32.1372 60.411 32.3898C60.7871 33.4451 60.8489 34.7474 60.5963 36.3136L59.6701 41.158C58.9908 44.9864 57.3629 47.9054 54.7751 49.9094C52.1873 51.9191 48.7462 52.9183 44.4575 52.9183H10.3163C8.68843 52.8846 8.0485 52.1941 8.30672 50.8413C8.30672 50.8413 8.99156 47.1251 9.90656 42.1291L10.6363 38.0482L14.3356 17.4467L16.2498 6.55091C16.4575 5.16438 17.3332 4.46831 18.8881 4.46831H49.9138V4.47954ZM28.0998 22.4764H30.3789H42.0606C43.0429 22.4764 43.8625 22.235 44.5081 21.7522C45.148 21.2638 45.5522 20.5846 45.715 19.7089L45.8665 18.676C46.1753 16.8236 45.2996 15.903 43.2338 15.903H29.2675L28.0998 22.4764ZM24.7486 41.5061H27.0277H41.8192C43.885 41.5061 45.075 40.5798 45.3894 38.7386L45.8553 35.9712C46.164 34.1243 45.3108 33.2093 43.3012 33.2093H29.7278H26.2306L25.905 35.0618L24.7486 41.5061ZM49.9138 2.23415H18.8769C16.2217 2.23415 14.4086 3.71611 14.0269 6.19726L12.1183 17.065L8.41899 37.6608L7.68923 41.7418C6.77424 46.7266 6.095 50.4427 6.095 50.4427C5.79188 52.0594 6.30832 53.1147 6.79108 53.7154C7.54328 54.6416 8.71089 55.13 10.2658 55.1693H10.2883H10.3107H44.4463C49.229 55.1693 53.164 53.996 56.1448 51.6889C59.1649 49.3537 61.0903 45.9519 61.8705 41.5734L62.7968 36.7458L62.8024 36.7121L62.808 36.6785C63.1224 34.753 63.0269 33.0578 62.5217 31.6432C62.4207 31.3513 62.2747 30.9752 62.0446 30.5766C61.2531 29.1676 60.2875 28.0281 59.1649 27.1973C59.0021 27.0738 58.8561 26.9784 58.7438 26.9054L58.6653 26.8549C58.6428 26.838 58.6203 26.8268 58.6035 26.81C59.3894 26.2037 60.1416 25.4178 60.8489 24.4691C61.719 23.3072 62.3309 21.842 62.6564 20.1187L62.6621 20.085L62.6677 20.0513L63.2066 16.6271C63.7455 13.7755 63.6163 11.2606 62.8305 9.14434C62.3645 7.90938 61.6909 6.83159 60.8321 5.93343C58.5025 3.48034 54.8256 2.23415 49.9138 2.23415ZM31.148 18.1427H43.2282C43.419 18.1427 43.5594 18.154 43.666 18.1708C43.6604 18.2101 43.6548 18.255 43.6492 18.3055L43.6436 18.328V18.3448L43.4976 19.3384C43.4247 19.7089 43.2843 19.8605 43.144 19.9671C42.9138 20.1411 42.5489 20.231 42.0606 20.231H30.7775L31.148 18.1427ZM28.1111 35.4491H29.7278H43.2955C43.4471 35.4491 43.565 35.4547 43.6548 35.4659C43.6492 35.5052 43.6436 35.5501 43.638 35.5951L43.172 38.3625C43.0822 38.9014 43.0205 39.2607 41.8192 39.2607H27.4318L28.1111 35.4491Z" fill="black"/>
<path d="M7.7903 17.4017C6.79672 16.6439 5.80313 17.0312 5.58421 18.2662L4.75341 22.9366C4.53449 24.166 4.17522 26.1812 3.96191 27.4162L3.15357 31.9743C2.93464 33.2037 3.63633 33.692 4.71412 33.0521L16.059 26.3328C17.1367 25.6928 17.1985 24.5533 16.2049 23.8011L7.7903 17.4017Z" stroke="black" stroke-width="6.02647"/>
<path d="M7.7903 17.4017C6.79672 16.6439 5.80313 17.0312 5.58421 18.2662L4.75341 22.9366C4.53449 24.166 4.17522 26.1812 3.96191 27.4162L3.15357 31.9743C2.93464 33.2037 3.63633 33.692 4.71412 33.0521L16.059 26.3328C17.1367 25.6928 17.1985 24.5533 16.2049 23.8011L7.7903 17.4017Z" fill="black"/>
<path d="M55.2747 22.9984C55.9988 22.4932 56.7005 21.7859 57.3741 20.8877C58.0421 19.9896 58.508 18.85 58.7719 17.4635L59.3164 14.0056C59.7879 11.5132 59.6869 9.40818 59.0469 7.69045C58.6989 6.76423 58.2049 5.95027 57.5313 5.24859C55.6227 3.23896 52.5241 2.23415 48.2297 2.23415H17.1984C15.6435 2.23415 14.7678 2.93022 14.5601 4.31675L13.2129 11.9679L12.4887 16.0265L12.3596 16.7338L19.8199 22.9254C21.7229 24.5028 21.5713 26.8773 19.4831 28.1965L9.13185 34.7643L8.94661 35.814L8.22247 39.895C7.30747 44.891 6.62263 48.6071 6.62263 48.6071C6.36441 49.9543 7.00996 50.6448 8.63225 50.6841H42.7678C47.0621 50.6841 50.4976 49.6793 53.0854 47.6697C55.6788 45.6656 57.3067 42.7466 57.986 38.9182L58.9122 34.0738C59.1648 32.5076 59.1031 31.2053 58.727 30.15C58.6371 29.8974 58.5417 29.6616 58.4126 29.4371C57.767 28.2807 57.0036 27.3825 56.1279 26.7426C56.01 26.6416 55.8697 26.563 55.7406 26.4788C54.7807 25.8388 53.6524 25.3617 52.3276 25.0754L52.4791 24.3793C53.4671 24.0594 54.399 23.5991 55.2747 22.9984ZM44.1768 33.7258L43.7053 36.4932C43.3965 38.3401 42.2065 39.2663 40.1407 39.2663H23.0701L24.2209 32.8108L24.5465 30.9583H41.6171C43.6323 30.9583 44.4856 31.8789 44.1768 33.7258ZM44.1824 16.4306L44.0309 17.4635C43.8737 18.3392 43.4695 19.0185 42.8296 19.5068C42.184 19.9896 41.3645 20.231 40.3821 20.231H26.4158L27.589 13.652H41.5497C43.6211 13.652 44.4968 14.5782 44.1824 16.4306Z" stroke="black" stroke-width="3.34804"/>
<path d="M48.2297 2.7955C52.3444 2.7955 55.3364 3.74979 57.1271 5.63592C57.7334 6.27024 58.1937 7.00561 58.5193 7.88692C59.1255 9.52045 59.2097 11.5413 58.7606 13.9214L58.2217 17.3625C57.9747 18.6536 57.5369 19.7314 56.925 20.5565C56.2851 21.4098 55.6227 22.0778 54.9547 22.5437C54.1295 23.1107 53.237 23.5541 52.3051 23.8517L51.9964 23.9527L51.929 24.2671L51.7775 24.9631L51.6596 25.5133L52.2097 25.6311C53.4222 25.895 54.5056 26.3384 55.4318 26.9559L55.5441 27.0233C55.6283 27.0738 55.7069 27.1243 55.763 27.1748L55.7799 27.1917L55.7967 27.2029C56.6051 27.7923 57.3236 28.64 57.9242 29.7234C58.0197 29.8862 58.0982 30.0714 58.1937 30.3465C58.5361 31.3064 58.5866 32.5301 58.3565 33.9784L57.4302 38.8284C56.7791 42.5053 55.2017 45.3345 52.7374 47.2318C50.2618 49.1516 46.905 50.1284 42.7622 50.1284H8.63787C7.95864 50.1115 7.4871 49.9656 7.28502 49.713C7.12223 49.5109 7.08293 49.1741 7.16713 48.7138C7.16713 48.7138 7.85198 44.9976 8.76698 39.996L9.49111 35.915L9.63707 35.1067L19.7862 28.6736C20.9482 27.9327 21.6331 26.8773 21.7117 25.6929C21.7903 24.5084 21.2457 23.3745 20.1848 22.4932L12.9715 16.5092L13.0388 16.1219L13.763 12.0634L15.1102 4.39534C15.2786 3.28387 15.9186 2.78988 17.1928 2.78988H48.2297V2.7955ZM25.7421 20.7923H26.4101H40.3765C41.4823 20.7923 42.4198 20.5116 43.1664 19.9503C43.9242 19.3721 44.4014 18.5694 44.581 17.5421L44.7325 16.5205C44.9122 15.4707 44.7494 14.6399 44.2498 14.0505C43.7109 13.4106 42.8015 13.0906 41.5497 13.0906H27.589H27.1174L27.0332 13.5509L25.86 20.1299L25.7421 20.7923ZM22.3965 39.8276H23.0645H40.1351C43.0934 39.8276 44.0084 38.065 44.2554 36.5886L44.7269 33.8212C44.9009 32.7659 44.7382 31.9295 44.2386 31.34C43.7109 30.7169 42.824 30.397 41.6114 30.397H24.5465H24.0749L23.9907 30.8629L23.6652 32.7153L22.5144 39.1708L22.3965 39.8276ZM48.2297 2.23415H17.1984C15.6435 2.23415 14.7678 2.93022 14.5601 4.31675L13.2129 11.9679L12.4887 16.0265L12.3596 16.7338L19.8199 22.9254C21.7229 24.5028 21.5713 26.8773 19.4831 28.1965L9.13185 34.7643L8.94661 35.814L8.22247 39.895C7.30747 44.891 6.62263 48.6071 6.62263 48.6071C6.36441 49.9543 7.00996 50.6448 8.63225 50.6841H42.7678C47.0621 50.6841 50.4976 49.6793 53.0854 47.6697C55.6788 45.6656 57.3067 42.7466 57.986 38.9182L58.9122 34.0738C59.1648 32.5076 59.1031 31.2053 58.727 30.15C58.6371 29.8974 58.5417 29.6616 58.4126 29.4371C57.767 28.2807 57.0036 27.3825 56.1279 26.7426C56.01 26.6416 55.8697 26.563 55.7406 26.4788C54.7807 25.8388 53.6524 25.3617 52.3276 25.0754L52.4791 24.3793C53.4671 24.0594 54.399 23.5991 55.2747 22.9984C55.9988 22.4932 56.7005 21.7859 57.3741 20.8877C58.0421 19.9896 58.508 18.85 58.7719 17.4635L59.3164 14.0056C59.7879 11.5132 59.6869 9.40818 59.0469 7.69045C58.6989 6.76423 58.2049 5.95027 57.5313 5.24859C55.6227 3.23896 52.5241 2.23415 48.2297 2.23415ZM26.4158 20.231L27.589 13.652H41.5497C43.6211 13.652 44.4968 14.5782 44.1824 16.4306L44.0309 17.4635C43.8737 18.3392 43.4695 19.0185 42.8296 19.5068C42.184 19.9896 41.3645 20.231 40.3821 20.231H26.4158ZM23.0701 39.2663L24.2209 32.8108L24.5465 30.9583H41.6171C43.6323 30.9583 44.4856 31.8789 44.1768 33.7258L43.7053 36.4932C43.3965 38.3401 42.2065 39.2663 40.1407 39.2663H23.0701Z" stroke="black" stroke-width="3.34804"/>
<path d="M55.2747 22.9984C55.9988 22.4932 56.7005 21.7859 57.3741 20.8877C58.0421 19.9896 58.508 18.85 58.7719 17.4635L59.3164 14.0056C59.7879 11.5132 59.6869 9.40818 59.0469 7.69045C58.6989 6.76423 58.2049 5.95027 57.5313 5.24859C55.6227 3.23896 52.5241 2.23415 48.2297 2.23415H17.1984C15.6435 2.23415 14.7678 2.93022 14.5601 4.31675L13.2129 11.9679L12.4887 16.0265L12.3596 16.7338L19.8199 22.9254C21.7229 24.5028 21.5713 26.8773 19.4831 28.1965L9.13185 34.7643L8.94661 35.814L8.22247 39.895C7.30747 44.891 6.62263 48.6071 6.62263 48.6071C6.36441 49.9543 7.00996 50.6448 8.63225 50.6841H42.7678C47.0621 50.6841 50.4976 49.6793 53.0854 47.6697C55.6788 45.6656 57.3067 42.7466 57.986 38.9182L58.9122 34.0738C59.1648 32.5076 59.1031 31.2053 58.727 30.15C58.6371 29.8974 58.5417 29.6616 58.4126 29.4371C57.767 28.2807 57.0036 27.3825 56.1279 26.7426C56.01 26.6416 55.8697 26.563 55.7406 26.4788C54.7807 25.8388 53.6524 25.3617 52.3276 25.0754L52.4791 24.3793C53.4671 24.0594 54.399 23.5991 55.2747 22.9984ZM44.1768 33.7258L43.7053 36.4932C43.3965 38.3401 42.2065 39.2663 40.1407 39.2663H23.0701L24.2209 32.8108L24.5465 30.9583H41.6171C43.6323 30.9583 44.4856 31.8789 44.1768 33.7258ZM44.1824 16.4306L44.0309 17.4635C43.8737 18.3392 43.4695 19.0185 42.8296 19.5068C42.184 19.9896 41.3645 20.231 40.3821 20.231H26.4158L27.589 13.652H41.5497C43.6211 13.652 44.4968 14.5782 44.1824 16.4306Z" fill="white"/>
<path d="M7.08839 16.644C6.10603 15.8693 5.12367 16.2398 4.90475 17.4748L4.07395 22.1452C3.85503 23.3745 3.49576 25.3898 3.28245 26.6247L2.47411 31.1829C2.25518 32.4122 2.95126 32.8894 4.01782 32.2382L14.9473 25.5694C16.0138 24.9182 16.0868 23.7506 15.1044 22.976L7.08839 16.644Z" fill="white"/>
</g>
<defs>
<clipPath id="clip0">
<rect width="62.9496" height="54.3385" fill="white" transform="translate(0.588257 0.830765)"/>
</clipPath>
</defs>
</svg>

<svg width="64" height="56" fill="none" xmlns="http://www.w3.org/2000/svg"><g clip-path="url(#a)"><path d="M7.088 16.083c-.982-.775-1.964-.405-2.183.83l-.831 4.67c-.219 1.23-.578 3.245-.792 4.48l-.808 4.559c-.219 1.229.477 1.706 1.544 1.055l10.93-6.669c1.066-.651 1.139-1.819.156-2.593l-8.016-6.332Z" fill="#000"/><path d="M10.316 54.047c-1.229-.028-2.116-.377-2.65-1.039-.488-.606-.645-1.403-.465-2.369 0 0 .685-3.716 1.594-8.706l.73-4.076 3.7-20.607 1.913-10.89c.281-1.903 1.65-3.009 3.745-3.009h31.03c4.593 0 7.995 1.129 10.116 3.363a8.275 8.275 0 0 1 1.752 2.818c.718 1.93.825 4.26.32 6.921l-.54 3.424c-.297 1.583-.836 2.891-1.61 3.924-.747 1-1.538 1.79-2.358 2.358-.387.27-.791.51-1.207.73.59.252 1.145.55 1.662.892l.1.062c.124.078.253.163.366.253.965.701 1.835 1.728 2.56 3.025.18.32.303.64.393.881.437 1.241.516 2.745.235 4.486l-.932 4.872c-.724 4.087-2.514 7.264-5.31 9.425-2.779 2.167-6.483 3.262-11.014 3.262h-34.13ZM41.82 40.383c1.892 0 2.302-.881 2.459-1.83l.466-2.773c.09-.527.05-.92-.112-1.111-.186-.22-.674-.348-1.336-.348H27.174l-1.078 6.057h15.723v.005Zm.242-19.03c.74 0 1.325-.162 1.773-.499.416-.32.663-.746.775-1.342l.146-.999c.056-.325.107-.87-.112-1.123-.197-.23-.713-.364-1.415-.364H30.205l-.769 4.333h12.625v-.005Z" fill="#000"/><path d="M49.914 4.48c4.294 0 7.393 1.004 9.301 3.008a7.127 7.127 0 0 1 1.516 2.442c.64 1.718.741 3.823.27 6.315l-.545 3.458c-.258 1.387-.73 2.526-1.398 3.425-.673.898-1.375 1.61-2.1 2.11a10.656 10.656 0 0 1-2.795 1.387l-.151.696c1.325.286 2.453.763 3.413 1.403.129.084.264.163.387.258.876.64 1.64 1.544 2.285 2.695.129.224.224.46.314.713.376 1.055.438 2.357.185 3.924l-.926 4.844c-.68 3.828-2.307 6.747-4.895 8.751-2.588 2.01-6.029 3.01-10.317 3.01H10.316c-1.628-.034-2.268-.725-2.01-2.078 0 0 .686-3.716 1.6-8.712l.73-4.08 3.7-20.602L16.25 6.55c.207-1.387 1.083-2.083 2.638-2.083h31.026v.012ZM28.1 22.476h13.96c.982 0 1.801-.241 2.447-.724.64-.488 1.044-1.167 1.207-2.043l.151-1.033c.31-1.852-.566-2.773-2.632-2.773H29.267L28.1 22.476Zm-3.351 19.03h17.07c2.066 0 3.256-.926 3.57-2.767l.466-2.768c.309-1.847-.544-2.762-2.554-2.762h-17.07l-.326 1.853-1.156 6.444ZM49.914 2.234H18.877c-2.655 0-4.468 1.482-4.85 3.963l-1.909 10.868L8.42 37.661l-.73 4.08c-.915 4.986-1.594 8.702-1.594 8.702-.303 1.616.213 2.672.696 3.272.752.927 1.92 1.415 3.475 1.454h34.18c4.783 0 8.718-1.173 11.699-3.48 3.02-2.335 4.945-5.737 5.725-10.116l.927-4.827.005-.034.006-.034c.314-1.925.219-3.62-.286-5.035a6.084 6.084 0 0 0-.477-1.066c-.792-1.41-1.758-2.549-2.88-3.38a6.802 6.802 0 0 0-.421-.292l-.079-.05c-.022-.017-.045-.028-.062-.045.786-.606 1.539-1.392 2.246-2.34.87-1.163 1.482-2.628 1.807-4.351l.006-.034.006-.034.539-3.424c.538-2.851.41-5.366-.377-7.483a9.416 9.416 0 0 0-1.998-3.21c-2.33-2.454-6.006-3.7-10.918-3.7ZM31.148 18.143h12.08c.191 0 .331.011.438.028l-.017.134-.005.023v.017l-.146.993c-.073.37-.214.522-.354.63-.23.173-.595.263-1.083.263H30.777l.371-2.088Zm-3.037 17.306h15.184c.152 0 .27.006.36.017a7.69 7.69 0 0 0-.017.13l-.466 2.767c-.09.538-.151.898-1.353.898H27.432l.68-3.812Z" fill="#000"/><path d="M7.79 17.402c-.993-.758-1.987-.37-2.206.864l-.83 4.67a888.67 888.67 0 0 0-.792 4.48l-.808 4.558c-.22 1.23.482 1.718 1.56 1.078l11.345-6.72c1.078-.64 1.14-1.779.146-2.53l-8.415-6.4Z" stroke="#000" stroke-width="6.026"/><path d="M7.79 17.402c-.993-.758-1.987-.37-2.206.864l-.83 4.67a888.67 888.67 0 0 0-.792 4.48l-.808 4.558c-.22 1.23.482 1.718 1.56 1.078l11.345-6.72c1.078-.64 1.14-1.779.146-2.53l-8.415-6.4Z" fill="#000"/><path d="M55.275 22.998c.724-.505 1.425-1.212 2.1-2.11.667-.898 1.133-2.038 1.397-3.425l.544-3.457c.472-2.493.37-4.598-.27-6.316a7.043 7.043 0 0 0-1.515-2.441c-1.908-2.01-5.007-3.015-9.301-3.015H17.198c-1.555 0-2.43.696-2.638 2.083l-1.347 7.65-.724 4.06-.13.707 7.46 6.191c1.904 1.578 1.752 3.952-.336 5.271L9.132 34.764l-.185 1.05-.725 4.081c-.915 4.996-1.6 8.712-1.6 8.712-.258 1.347.388 2.038 2.01 2.077h34.136c4.294 0 7.73-1.005 10.317-3.014 2.594-2.004 4.222-4.923 4.901-8.752l.926-4.844c.253-1.566.191-2.869-.185-3.924a4.295 4.295 0 0 0-.314-.713c-.646-1.156-1.41-2.055-2.285-2.694-.118-.101-.258-.18-.387-.264-.96-.64-2.089-1.117-3.413-1.404l.151-.696c.988-.32 1.92-.78 2.796-1.38ZM44.177 33.726l-.472 2.767c-.308 1.847-1.498 2.773-3.564 2.773H23.07l1.15-6.455.326-1.853h17.07c2.015 0 2.869.92 2.56 2.768Zm.005-17.295-.151 1.032c-.157.876-.562 1.555-1.201 2.044-.646.483-1.465.724-2.448.724H26.416l1.173-6.579h13.96c2.072 0 2.948.926 2.633 2.779Z" stroke="#000" stroke-width="3.348"/><path d="M48.23 2.796c4.114 0 7.106.954 8.897 2.84a6.401 6.401 0 0 1 1.392 2.25c.607 1.634.69 3.655.242 6.035l-.54 3.442c-.246 1.29-.684 2.368-1.296 3.194-.64.853-1.302 1.52-1.97 1.987a10.131 10.131 0 0 1-2.65 1.308l-.309.1-.067.315-.151.696-.118.55.55.118c1.212.264 2.296.707 3.222 1.325l.112.067c.084.05.163.101.219.152l.017.017.017.01c.808.59 1.527 1.438 2.127 2.521.096.163.174.348.27.623.342.96.393 2.184.162 3.632l-.926 4.85c-.65 3.677-2.228 6.506-4.693 8.404-2.475 1.92-5.832 2.896-9.975 2.896H8.638c-.68-.017-1.15-.162-1.353-.415-.163-.202-.202-.539-.118-1 0 0 .685-3.715 1.6-8.717l.724-4.081.146-.808 10.15-6.433c1.161-.741 1.846-1.797 1.925-2.981.078-1.185-.466-2.319-1.527-3.2l-7.213-5.984.067-.387.724-4.059 1.347-7.668c.169-1.111.809-1.605 2.083-1.605H48.23v.006ZM25.742 20.791h14.634c1.106 0 2.044-.28 2.79-.842.758-.578 1.235-1.38 1.415-2.408l.151-1.022c.18-1.05.017-1.88-.482-2.47-.54-.64-1.449-.96-2.7-.96H27.117l-.084.46-1.173 6.58-.118.662Zm-3.346 19.036h17.739c2.958 0 3.873-1.763 4.12-3.24l.472-2.767c.174-1.055.011-1.891-.488-2.481-.528-.623-1.415-.943-2.628-.943H24.075l-.084.466-.326 1.852-1.15 6.456-.119.657ZM48.23 2.234H17.198c-1.555 0-2.43.696-2.638 2.083l-1.347 7.65-.724 4.06-.13.707 7.46 6.191c1.904 1.578 1.752 3.952-.336 5.271L9.132 34.764l-.185 1.05-.725 4.081c-.915 4.996-1.6 8.712-1.6 8.712-.258 1.347.388 2.038 2.01 2.077h34.136c4.294 0 7.73-1.005 10.317-3.014 2.594-2.004 4.222-4.923 4.901-8.752l.926-4.844c.253-1.566.191-2.869-.185-3.924a4.295 4.295 0 0 0-.314-.713c-.646-1.156-1.41-2.055-2.285-2.694-.118-.101-.258-.18-.387-.264-.96-.64-2.089-1.117-3.413-1.404l.151-.696c.988-.32 1.92-.78 2.796-1.38.724-.506 1.425-1.213 2.1-2.111.667-.898 1.133-2.038 1.397-3.425l.544-3.457c.472-2.493.37-4.598-.27-6.316a7.043 7.043 0 0 0-1.515-2.441c-1.908-2.01-5.007-3.015-9.301-3.015ZM26.416 20.231l1.173-6.579h13.96c2.072 0 2.948.926 2.633 2.779l-.151 1.032c-.157.876-.562 1.555-1.201 2.044-.646.483-1.465.724-2.448.724H26.416ZM23.07 39.266l1.15-6.455.327-1.853h17.07c2.015 0 2.869.92 2.56 2.768l-.472 2.767c-.308 1.847-1.498 2.773-3.564 2.773H23.07Z" stroke="#000" stroke-width="3.348"/><path d="M55.275 22.998c.724-.505 1.425-1.212 2.1-2.11.667-.898 1.133-2.038 1.397-3.425l.544-3.457c.472-2.493.37-4.598-.27-6.316a7.043 7.043 0 0 0-1.515-2.441c-1.908-2.01-5.007-3.015-9.301-3.015H17.198c-1.555 0-2.43.696-2.638 2.083l-1.347 7.65-.724 4.06-.13.707 7.46 6.191c1.904 1.578 1.752 3.952-.336 5.271L9.132 34.764l-.185 1.05-.725 4.081c-.915 4.996-1.6 8.712-1.6 8.712-.258 1.347.388 2.038 2.01 2.077h34.136c4.294 0 7.73-1.005 10.317-3.014 2.594-2.004 4.222-4.923 4.901-8.752l.926-4.844c.253-1.566.191-2.869-.185-3.924a4.295 4.295 0 0 0-.314-.713c-.646-1.156-1.41-2.055-2.285-2.694-.118-.101-.258-.18-.387-.264-.96-.64-2.089-1.117-3.413-1.404l.151-.696c.988-.32 1.92-.78 2.796-1.38ZM44.177 33.726l-.472 2.767c-.308 1.847-1.498 2.773-3.564 2.773H23.07l1.15-6.455.326-1.853h17.07c2.015 0 2.869.92 2.56 2.768Zm.005-17.295-.151 1.032c-.157.876-.562 1.555-1.201 2.044-.646.483-1.465.724-2.448.724H26.416l1.173-6.579h13.96c2.072 0 2.948.926 2.633 2.779Z" fill="#fff"/><path d="M7.088 16.644c-.982-.775-1.964-.404-2.183.83l-.831 4.671c-.219 1.23-.578 3.245-.792 4.48l-.808 4.558c-.219 1.23.477 1.706 1.544 1.055l10.93-6.669c1.066-.65 1.139-1.818.156-2.593l-8.016-6.332Z" fill="#fff"/></g><defs><clipPath id="a"><path fill="#fff" transform="translate(.588 .83)" d="M0 0h62.95v54.339H0z"/></clipPath></defs></svg>
